X:70
T:Kohler's Hornpipe
M:C
L:1/8
Q:230
C:Traditional
S:Kohler's Repository
R:Hornpipe
Z:posted by John Erdman 4/98
K:C
G2|"C"c2cB cdef|"C"g^fga "C7"gedc|"F"A^GAB cdcA|"C"GEcA "C7"GECE|
"F"FEFG AGAB|"C"cBcd "A7"egag|"Dm"fedc "F"Ac"G7"Bd|"C"eccB c2:|
|:g2|"C"egcg egcg|"G"dgBg dgBg|"Am"ceAe ceAe|"Em"GcEc "C7"GcEc|
"F"FEFG AGAB|"C"cBcd "A7"egag|"Dm"fedc "F"Ac"G7"Bd|"C"eccB c2:|
